X: 2
T: Young Brush the Painter.
%C: Mr. Gray
%R: reel
B: Mr. Gray "24 Country Dances for the Year 1805" p.1 #2
S: http://folkopedia.efdss.org/images/9/92/ThompsGray_24_1805.PDF  2013-12-2
Z: 2013 John Chambers <jc:trillian.mit.edu>
M: 2/4
L: 1/16
K: G
|:\
BcdB edcB | cBAG (FD).D2 |\
BcdB cedc | BAGF G2G2 :|
|:\
AFDc BdBG | AFDc (Bc).d2 |\
ecge dBGB | cAGF G2G2 :|
% - - - - - - - - - - - - - - - - - - - - - - - - -
%%begintext align
%% Twice down the mid: up again, hands 4
%% round at bottom right & left at top.
%%endtext

%%sep 1 1 500
%%sep 1 1 500
